icons/desktop/12/svg/globe-12.svg

<svg width="12" height="12" viewBox="0 0 12 12" fill="none" xmlns="http://www.w3.org/2000/svg">
<path fill-rule="evenodd" clip-rule="evenodd" d="M6 0C9.31371 0 12 2.68629 12 6C12 9.31371 9.31371 12 6 12C2.68629 12 0 9.31371 0 6C0 2.68629 2.68629 0 6 0ZM4.24707 6.625C4.38745 8.12227 5.02669 9.47254 5.99902 10.5107C6.97184 9.47243 7.61255 8.12272 7.75293 6.625H4.24707ZM1.29199 6.625C1.52466 8.39474 2.73055 9.85727 4.35547 10.457C3.59185 9.35161 3.10479 8.04163 2.99316 6.625H1.29199ZM9.00586 6.625C8.89433 8.04167 8.40795 9.35159 7.64453 10.457C9.26945 9.85727 10.4753 8.39474 10.708 6.625H9.00586ZM5.99902 1.48828C5.02641 2.52655 4.38747 3.87748 4.24707 5.375H7.75293C7.61253 3.87703 6.97212 2.52666 5.99902 1.48828ZM7.64453 1.54199C8.40822 2.64757 8.8943 3.95805 9.00586 5.375H10.708C10.4753 3.60514 9.26961 2.14168 7.64453 1.54199ZM4.35547 1.54199C2.73039 2.14168 1.52468 3.60514 1.29199 5.375H2.99316C3.10481 3.95809 3.59158 2.64756 4.35547 1.54199Z" fill="black"/>
</svg>

<!-- This Source Code Form is subject to the terms of the Mozilla Public
   - License, v. 2.0. If a copy of the MPL was not distributed with this
   - file, You can obtain one at http://mozilla.org/MPL/2.0/. -->
<svg xmlns="http://www.w3.org/2000/svg" width="12" height="12" fill="context-fill" fill-opacity="context-fill-opacity" viewBox="0 0 12 12">
    <path fill-rule="evenodd" d="M6 0a6 6 0 1 1 0 12A6 6 0 0 1 6 0M4.247 6.625A6.57 6.57 0 0 0 6 10.511a6.57 6.57 0 0 0 1.754-3.886zm-2.955 0a4.75 4.75 0 0 0 3.063 3.832 7.8 7.8 0 0 1-1.362-3.832zm7.714 0a7.8 7.8 0 0 1-1.361 3.832 4.75 4.75 0 0 0 3.063-3.832zM5.999 1.488a6.57 6.57 0 0 0-1.752 3.887h3.506a6.57 6.57 0 0 0-1.754-3.887m1.646.054a7.8 7.8 0 0 1 1.36 3.833h1.703a4.76 4.76 0 0 0-3.063-3.833m-3.29 0a4.76 4.76 0 0 0-3.063 3.833h1.701a7.8 7.8 0 0 1 1.362-3.833" clip-rule="evenodd" />
</svg>
